images/icon-linkedin.svg

<?xml version="1.0" encoding="UTF-8" standalone="no"?>
<svg width="50px" height="50px" viewBox="0 0 50 50" version="1.1" xmlns="http://www.w3.org/2000/svg" xmlns:xlink="http://www.w3.org/1999/xlink" xmlns:sketch="http://www.bohemiancoding.com/sketch/ns">
    <title>LinkedIn</title>
    <description>Created with Sketch (http://www.bohemiancoding.com/sketch)</description>
    <defs></defs>
    <g id="Page-1" stroke="none" stroke-width="1" fill="none" fill-rule="evenodd" sketch:type="MSPage">
        <g id="LinkedIn" sketch:type="MSArtboardGroup" fill="#000000">
            <path d="M25,50 C38.8071194,50 50,38.8071194 50,25 C50,11.1928806 38.8071194,0 25,0 C11.1928806,0 0,11.1928806 0,25 C0,38.8071194 11.1928806,50 25,50 Z M25,47 C37.1502651,47 47,37.1502651 47,25 C47,12.8497349 37.1502651,3 25,3 C12.8497349,3 3,12.8497349 3,25 C3,37.1502651 12.8497349,47 25,47 Z M14,20.1180479 L14,34.6581834 L18.7100851,34.6581834 L18.7100851,20.1180479 L14,20.1180479 Z M16.6646962,13 C15.0534058,13 14,14.0858611 14,15.5115122 C14,16.9076331 15.0222711,18.0247614 16.6035556,18.0247614 L16.6336556,18.0247614 C18.2759867,18.0247614 19.2988222,16.9076331 19.2988222,15.5115122 C19.2682519,14.0858611 18.2759867,13 16.6646962,13 Z M30.5769213,20.1180479 C28.076176,20.1180479 26.9565501,21.5293199 26.3314108,22.5193527 L26.3314108,20.4598644 L21.6207614,20.4598644 C21.6828427,21.8242356 21.6207614,35 21.6207614,35 L26.3314108,35 L26.3314108,26.8795887 C26.3314108,26.445032 26.3619812,26.0115368 26.4865199,25.7004084 C26.826932,24.83226 27.6020069,23.9334233 28.9032674,23.9334233 C30.6083381,23.9334233 31.2899149,25.2667202 31.2899149,27.2206333 L31.2899149,34.999614 L35.9998119,34.999614 L36,26.6627446 C36,22.1966439 33.6763743,20.1180479 30.5769213,20.1180479 Z M30.5769213,20.1180479" id="Oval-1" sketch:type="MSShapeGroup"></path>
        </g>
    </g>
</svg>

<svg width="50" height="50" xmlns="http://www.w3.org/2000/svg" xmlns:sketch="http://www.bohemiancoding.com/sketch/ns"><title>LinkedIn</title><path d="M25 50c13.807 0 25-11.193 25-25s-11.193-25-25-25-25 11.193-25 25 11.193 25 25 25zm0-3c12.15 0 22-9.85 22-22s-9.85-22-22-22-22 9.85-22 22 9.85 22 22 22zm-11-26.882v14.54h4.71v-14.54h-4.71zm2.665-7.118c-1.611 0-2.665 1.086-2.665 2.512 0 1.396 1.022 2.513 2.604 2.513h.03c1.642 0 2.665-1.117 2.665-2.513-.031-1.426-1.023-2.512-2.634-2.512zm13.912 7.118c-2.501 0-3.62 1.411-4.246 2.401v-2.059h-4.711c.062 1.364 0 14.54 0 14.54h4.711v-8.12c0-.435.031-.868.155-1.179.34-.868 1.115-1.767 2.417-1.767 1.705 0 2.387 1.333 2.387 3.287v7.779h4.71v-8.337c0-4.466-2.324-6.545-5.423-6.545zm0 0" sketch:type="MSShapeGroup" fill="none"/></svg>
